X:188
T: AUF GLUECK AUF MEIN DEUTSCHLAND
N: Z0187
O: Europa, Mitteleuropa, Oesterreich
R: Soldaten - Lied, patriotisch
M: 4/4
L: 1/8
K: C
 | C3EG3E | C4C3
C | D3CD3E | C4z4 |
E2E2FEDC | F2G2A4 |
G3AGFFE | E2D4z2 |
E2E2FEDC | F2G2A4 |
c3AGFED | C4z4

@@@ Tune index: 9946
